X:7
T:Polka G 10-  chords
M:2/4
L:1/8
K:Gmaj%%MIDI gchordon
"G"B,D D2 | "C"CEE2 | "G"DB GB | D2z2 | "D7"CA FA | D3C | "G"B,G FE | D2z2 | B,D D2 | "C"CEE2 | "G"DB GB | 
D2z2 | "D7"CA FA | C2 A>G | FE DF | "G"G2z2 :: "C"Ec Gc | E2z2 | "G"DB GB | D2z2 | "D7"C2 A>G | 
FE DC | "G"B,G FE | D2z2 | "C"Ec Gc | E2z2 | "G"DB GB | D2z2 | "D7"C2 A>G | FE D>F | "G"G2B2 | G2z2 :| 

